dist/flags/s/732.svg

<svg width="16" height="12" viewBox="0 0 16 12" fill="none" xmlns="http://www.w3.org/2000/svg">
<mask id="mask0" mask-type="alpha" maskUnits="userSpaceOnUse" x="0" y="0" width="16" height="12">
<rect width="16" height="12" fill="white"/>
</mask>
<g mask="url(#mask0)">
<path fill-rule="evenodd" clip-rule="evenodd" d="M0 0H16V12H0V0Z" fill="#F7FCFF"/>
<path fill-rule="evenodd" clip-rule="evenodd" d="M0 0V4H16V0H0Z" fill="#272727"/>
<path fill-rule="evenodd" clip-rule="evenodd" d="M0 8V12H16V8H0Z" fill="#5EAA22"/>
<path fill-rule="evenodd" clip-rule="evenodd" d="M0 0L8 6L0 12V0Z" fill="#E31D1C"/>
<path fill-rule="evenodd" clip-rule="evenodd" d="M10.8439 7.73855C10.8439 7.73855 9.70654 7.05117 9.70654 5.91526C9.70654 4.77936 10.8439 4.18178 10.8439 4.18178C10.3348 3.85877 8.56955 4.31977 8.56955 5.95227C8.56955 7.58477 10.3183 7.88639 10.8439 7.73855ZM11.7642 5.65627L11.1022 5.03605L11.3308 5.82787L10.6903 6.1313L11.4771 6.38739L11.8187 7.24451L11.9681 6.45109L12.7453 6.6227L12.1573 6.04848L12.3562 5.43583L11.7642 5.65627Z" fill="#E31D1C"/>
</g>
</svg>

<svg width="16" height="12" fill="none" xmlns="http://www.w3.org/2000/svg">
  <mask id="a" maskUnits="userSpaceOnUse" x="0" y="0" width="16" height="12">
    <path fill="#fff" d="M0 0h16v12H0z"/>
  </mask>
  <g mask="url(#a)" fill-rule="evenodd" clip-rule="evenodd">
    <path d="M0 0h16v12H0V0z" fill="#F7FCFF"/>
    <path d="M0 0v4h16V0H0z" fill="#272727"/>
    <path d="M0 8v4h16V8H0z" fill="#5EAA22"/>
    <path d="M0 0l8 6-8 6V0zm10.844 7.739S9.707 7.05 9.707 5.915c0-1.136 1.137-1.733 1.137-1.733-.51-.323-2.274.138-2.274 1.77 0 1.633 1.748 1.934 2.274 1.787zm.92-2.083l-.662-.62.229.792-.64.303.786.256.342.858.15-.794.776.172-.588-.575.2-.612-.593.22z" fill="#E31D1C"/>
  </g>
</svg>
